X:481
T:Miss Clementina Longham
C:Nathaniel Gow
N:For the dance "Polharrow Burn"
Z:2007 John Chambers <jc@trillian.mit.edu>
B:Carlin "The Gow Collection" (AABCCD) 1986; No.141
B:Hunter "Fiddle Music of Scotland" (AAB) 1988; No.161
S:Colin Hume's website,  colinhume.com  - chords can also be printed below the stave.
Q:1/2=120
M:2/2
L:1/8
K:G
Bc | "G"d2z2 "C"g3e | "G"d2cB "D7"d2ef | "G"g3e "Em"d2B2 | "Am"A4 "D7"A2Bc | "G"d2z2 "C"g3e | "G"d2cB d2ba | "C"g3e "D7"d2B2 | "G"G4 G2 :|
|: c2 | "G"B3c d2d2 | "C"e2c2 c2e2 | "G"d2B2 g2d2 | "Am"edcB "D7"A2dc | "G"B3d "G7"g2=f2 | "C"e2c2 "Am"a2g2 | "D7"fgaf d2f2 | "G"g4 g2 :|

